X:149
T:Steirer
C:traditionell
R:Steirer
A:Bad Ischl, Salzkammergut
B:"Pfeifermusik aus Bad Ischl", Lois Blamberger, 3. Auflage, Bad Ischl 1990
S:im buch mit der Angabe: aus der Sammlung vom Blamberger Lois
N:im buch in D, nr. 3/2
Z:abc transcription Simon Wascher
M:3/4
L:1/8
K:D
V:1
d>d |\
d2 (gdBG) | F2 (Adfa) | d2 (fdcF) | G2 (Bdgb) |\
d2 (gdBG) | F2 (Adfa) | d2 (fdcF) | G2 z2 :|
V:2
g>g |\
g2 (bgdB) | A2 (df ac') | f2 (afdc) | B2 (dgbd') |\
g2 (bgdB) | A2 (dfac') | f2 (afdc) | B2 z2 :|
